X: 1560
T: I Want To See More Of You
C:Herman Darewski (1883-1947)
B: australian traditional tunes wiki
M:3/4
L:1/8
R: Waltz
Q: 1/4=100
K:D
V:1 
f|"D"a2  f2e2|d4f2|"G"B6-|B4B2|"A7"g2e2d2|c4e2|"D"A6-|A4A2|
"D"d4c2|d4B2|"A7"c2z2c2|c4A2|"G"g4f2|"Em"g4fe|"A7"e6-|e4A2|
"D"a2f2e2|d4f2|"G"B6-|B4B2|"A7"g2e2d2|c4e2|"D"A6-|A4A2|
"G"B4A2|A2g2f2|"Em"e4f2|e2d2B2|"A7"c2A2zf|e4(3fgf|"D"d6-|d4z:|
% abcbook-tune_id 6342d53a25fa8fda729c0689


% abcbook-boost 0
% abcbook-tablature 
% abcbook-transpose 
% abcbook-lastupdated 1665324371098
% abcbook-soundfonts 
% abcbook-repeats 1
% NFF Book 2022
% Bush Traditions recording played by Ray Mulligan

